!!!OTL: ADE DU LIEBES WALDESGRUEN
!!!ARE: Europa, Mitteleuropa, Deutschland
!!!SCT: B0179
!!!YEM: Copyright 1995, estate of Helmut Schaffrath.
**kern
*ICvox
*Ivox
*M4/4
*k[f#]
*G:
{4d
=1
4.dd
8cc
4b
4a
=2
4g
4e
4d}
{4d
=3
2a
4r
4d
=4
2b
4r}
{4b
=5
4.ee
8dd
4cc#
4b
=6
4a
4g
4f#}
{4b
=7
2a
4r
4g
=8
2fn
4r}
{8a
8b
=9
4cc
8cc
8b
4a
8a
8b
=10
4cc
4b
4a}
{8cc
8dd
=11
8ee
8dd
4cc
8cc
8b
8a
8g
=12
4f#
8f#
8g
4a}
{4d
=13
4.b
8b
4a
4dd
=14
2g
4r}
{4d
=15
4.b
8b
4a
4dd
=16
2g
4r}
==
!!!AGN: Natur - Lied, Wald; Abschied
!!!ONB: ESAC (Essen Associative Code) Database: BOEHME
!!!AMT: simple quadruple
!!!AIN: vox
!!!EED: Helmut Schaffrath
!!!EEV: 1.0
*-
